src/main/resources/static/assets/img/logos/django.svg

<?xml version="1.0" encoding="UTF-8" standalone="no"?>
<svg width="256px" height="326px" viewBox="0 0 256 326" version="1.1" xmlns="http://www.w3.org/2000/svg" xmlns:xlink="http://www.w3.org/1999/xlink" preserveAspectRatio="xMidYMid">
	<g fill="#2BA977">
		<path d="M114.78426,0 L168.062259,0 L168.062259,244.191113 C140.771855,249.353285 120.681181,251.384192 98.944855,251.384192 C33.8730137,251.316268 0,222.24509 0,166.412124 C0,112.616857 35.9300792,77.7042732 91.6079875,77.7042732 C100.247663,77.7042732 106.830273,78.3835061 114.78426,80.4212057 L114.78426,0 Z M116.651443,124.426648 C110.411677,122.388948 105.269013,121.709714 98.6864035,121.709714 C71.7388438,121.709714 56.1737143,138.147157 56.1737143,166.953436 C56.1737143,194.998972 71.0531556,210.485489 98.3435585,210.485489 C104.24048,210.485489 109.040299,210.152664 116.651443,209.133814 L116.651443,124.426648 Z"></path>
		<path d="M255.186899,84.2605714 L255.186899,206.52254 C255.186899,248.628204 252.032731,268.876144 242.775936,286.332436 C234.136261,303.116288 222.753832,313.698741 199.234715,325.388343 L149.796571,302.090646 C173.315688,291.161784 184.698118,281.503088 191.966417,266.763729 C199.577559,251.691545 201.977469,234.235253 201.977469,188.319092 L201.977469,84.2605714 L255.186899,84.2605714 L255.186899,84.2605714 Z"></path>
		<path d="M196.608,0 L249.885999,0 L249.885999,54.1348831 L196.608,54.1348831 L196.608,0 L196.608,0 Z"></path>
	</g>
</svg>

<svg id="레이어_1" data-name="레이어 1" xmlns="http://www.w3.org/2000/svg" viewBox="0 0 255.19 325.39"><defs><style>.cls-1{fill:#2ba977;}</style></defs><path class="cls-1" d="M114.78,0h53.28V244.19c-27.29,5.16-47.38,7.19-69.12,7.19C33.87,251.32,0,222.25,0,166.41,0,112.62,35.93,77.7,91.61,77.7a86.5,86.5,0,0,1,23.17,2.72Zm1.87,124.43a53.57,53.57,0,0,0-18-2.72c-26.95,0-42.52,16.44-42.52,45.24,0,28.05,14.88,43.54,42.17,43.54a125.68,125.68,0,0,0,18.31-1.36Z"/><path class="cls-1" d="M255.19,84.26V206.52c0,42.11-3.16,62.36-12.41,79.81-8.64,16.79-20,27.37-43.55,39.06l-49.43-23.3c23.52-10.93,34.9-20.59,42.17-35.33,7.61-15.07,10-32.52,10-78.44V84.26Z"/><path class="cls-1" d="M196.61,0h53.28V54.13H196.61V0Z"/></svg>
